icons/invoices.svg

<svg xmlns="http://www.w3.org/2000/svg" viewBox="0 0 48 48" enable-background="new 0 0 48 48"><polygon fill="#B6CBCE" points="6.8,40.1 6.8,1.8 34.8,1.8 34.8,0 5,0 5,40.1"/><polygon fill="#B6CBCE" points="10.5,44.4 10.5,5.5 38.4,5.5 38.4,3.6 8.6,3.6 8.6,44.4"/><path fill="#3D4344" d="M12.9 7.3v40.7h29.8v-40.7h-29.8zm3.6 12.8h22.5v1.8h-22.5v-1.8zm0 4.8h22.5v1.8h-22.5v-1.8zm0 4.9h22.5v1.8h-22.5v-1.8zm23.7 16.4h-6.5l6.5-6.2v6.2z"/></svg>

<?xml version="1.0" encoding="utf-8"?>
<!-- Generator: Adobe Illustrator 17.1.0, SVG Export Plug-In . SVG Version: 6.00 Build 0)  -->
<!DOCTYPE svg PUBLIC "-//W3C//DTD SVG 1.1//EN" "http://www.w3.org/Graphics/SVG/1.1/DTD/svg11.dtd">
<svg version="1.1" id="Layer_1" xmlns="http://www.w3.org/2000/svg" xmlns:xlink="http://www.w3.org/1999/xlink" x="0px" y="0px"
	 viewBox="0 0 48 48" enable-background="new 0 0 48 48" xml:space="preserve">
<polygon fill="#B6CBCE" points="6.8,40.1 6.8,1.8 34.8,1.8 34.8,0 5,0 5,40.1 "/>
<polygon fill="#B6CBCE" points="10.5,44.4 10.5,5.5 38.4,5.5 38.4,3.6 8.6,3.6 8.6,44.4 "/>
<path fill="#3D4344" d="M12.9,7.3V48h29.8V7.3H12.9z M16.5,20.1H39v1.8H16.5V20.1z M16.5,24.9H39v1.8H16.5V24.9z M16.5,29.8H39v1.8
	H16.5V29.8z M40.2,46.2h-6.5l6.5-6.2V46.2z"/>
</svg>
